!!!OTL: 576. Der Rekrut.
!!!COM: Fr. Kuecken
!!!ODT: 1835
!!!ARE: Europa, Mitteleuropa, Deutschland
!!!SCT: B0576
!!!TXL: @@DE
!!!YEM: Copyright 1995, estate of Helmut Schaffrath.
**kern	**text
*ICvox	*
*Ivox	*
*clefG2	*
*M4/4	*
*met(c)	*
*k[]	*
*C:	*
!LO:TX:a:t=Marſchmäßig.	!
{8c	Wer
8e	will
=1	=1
4g	un-
4g	-ter
4a	die
4b	Sol-
=2	=2
2cc	-da
4g}	ten,
{8g	der
8a	muß
=3	=3
8.g	ha-
16f	-ben
8f	ein
8f	Ge-
4f	-wehr,
8a	der
8g	muß
=4	=4
8.g	ha-
16e	-ben
8e	ein
8e	Ge-
4e}	-wehr,
{8e	das
8g	muß
=5	=5
4cc	er
4cc	mit
4dd	Pul-
4dd	-ver
=6	=6
2ee	la-
4dd}	-den
{8a	und
8dd	mit
=7	=7
4cc	ei-
4cc	-ner
8ccL	Ku-
8bJ	.
8aL	-gel
8bJ	.
=8	=8
2cc	ſchwer.
4r}	.
!LO:TX:a:t=Refr.	!
{8g	Büblein,
8cc	.
=9	=9
8.cc^	wirſt
16b	du
8b	ein
8b	Re-
4b	-krut,
8b	merk
8a	dir
=10	=10
8.a^	die-
16g	-ſes
8g	Lieb-
8g	-chen
4g}	gut!
{8g	Hopp,
8g	hopp,
=11	=11
8g/L	hopp,
8ddJ	.
8g	hopp,
8g	hopp,
8g	hopp,
8r	.
8g	hopp,
8g	hopp,
=12	=12
8g/L	hopp,
8ccJ	.
8g	hopp,
8g	hopp,
4g}	hopp!
{8g	Büblein,
8cc	.
=13	=13
8.cc^	wirſt
16b	du
8b	ein
8b	Re-
4b	-krut,
8b	merk
8a	dir
=14	=14
8.a^	die-
16g	-ſes
8g	Lied-
8g	-chen
4g}	gut!
{8g	Pferdchen,
8g	.
=15	=15
8a	munter,
8a	.
8b	im-
8b	-mer
8cc	mun-
8cc	-ter,
8dd	lauf
8dd	Ga-
=16	=16
[2ee	-lopp
8eeL]	.
8ffJ}	,
{8a	hopp,
8dd	hopp,
=17	=17
8cc	hopp.,
8r	.
8e	hopp,
8a	hopp,
8g	hopp,
8r	.
8d	lauf
8e	Ga-
=18	=18
4c	-lopp!
4r	.
4r}	.
==	==
!!!AGN: Soldaten -, Kinder -, Reiter - Lied
!!!GTL: Soldatenlieder
!!!ONB: ESAC (Essen Associative Code) Database: BOEHME
!!!AMT: simple quadruple
!!!AIN: vox
!!!EED: Helmut Schaffrath
!!!EEV: 1.0
!!Fr. Kücken, " op. 61, Nr. 4. (1835.)
!!@@COMMENT:"Gedicht von Friedrich Güll, erſchien ʒuerſt in der Kinderheimath in Liedern". Gütersloh
!!1868. Volksausg. 1875. S. 18. ) Die 5. Str. iſt nicht von Güll, ſondern ſpäter von L. Schücking
!!hinʒugefügt und mit dem Liede in Jugendſchriften vielfach gedruckt. Auch der Refrain iſt nicht
!!von Güll, ſondern vom Komponiſten Fr. Kücken gefertigt aus der Ueberſchrift: "Büblein, wirſt
!!du ein Rekrut, merk' dir dieſes Liedlein gut" - und aus einem alten Kinderreim vom Steckenpferd.
!!Das ſcherʒhafte Lied vom kleinen Rekrut uber Soldatentoilette iſt mit Kücken's Mel. (op. 61, Nr. 4,
!!1855) überaus beliebt und auch von Erwachſenen geſungen, ja ſogar ʒum wirklichen Soldatenliede
!!geworden (ſ. Preuß. Soldatenliederb. Nr. 150, das deutſche Soldatenliederb. 1892. S. 300). Nach
!!dieſer Weiſe wurden 1870 auch andere Soldaten- und Kriegslieder geſungen ʒ. B. R. Löwenſtein's
!!Chaſſepot-Lied: "Jubelnd ſei's der Welt verkündet, nicht mehr ſcheidet uns der Main'."
!!@@END:
!!!Text: F. Güll
!!!URL-scan: https://archive.org/details/BoehmeVtLieder1895/page/n457/mode/2up
!!!ENC: Anna Maria Matuszewska
!!!EEV: 2024/12/07
*-	*-
